packages/dnb-eufemia/assets/icons/home.svg

<svg width="16" height="16" viewBox="0 0 16 16" fill="none" xmlns="http://www.w3.org/2000/svg">
<path d="M5.66667 12.976V9.31682C5.66667 8.94938 5.96514 8.65152 6.33333 8.65152H9.66667C10.0349 8.65152 10.3333 8.94938 10.3333 9.31682V12.976M2.33333 14.9718H13.6667C14.403 14.9718 15 14.3761 15 13.6412V6.67508C15 6.24536 14.792 5.84209 14.4417 5.59233L8.77499 1.55302C8.31139 1.22256 7.68861 1.22256 7.22502 1.55302L1.55835 5.59233C1.20795 5.84209 1 6.24536 1 6.67508V13.6412C1 14.3761 1.59695 14.9718 2.33333 14.9718Z" stroke="black" stroke-width="1.5" stroke-linejoin="round"/>
</svg>

<svg width="16" height="16" viewBox="0 0 16 16" fill="none" xmlns="http://www.w3.org/2000/svg"><path d="M5.667 12.976v-3.66c0-.367.298-.664.666-.664h3.334c.368 0 .666.297.666.665v3.659m-8 1.996h11.334c.736 0 1.333-.596 1.333-1.33V6.674c0-.43-.208-.833-.558-1.083L8.775 1.553a1.336 1.336 0 0 0-1.55 0l-5.667 4.04A1.33 1.33 0 0 0 1 6.674v6.966c0 .735.597 1.33 1.333 1.33Z" stroke="#000" stroke-width="1.5" stroke-linejoin="round"/></svg>
